img/logo-lightblue.svg

<?xml version="1.0" encoding="utf-8"?>
<!-- Generator: Adobe Illustrator 28.2.0, SVG Export Plug-In . SVG Version: 6.00 Build 0)  -->
<svg version="1.1" id="Livello_1" xmlns="http://www.w3.org/2000/svg" xmlns:xlink="http://www.w3.org/1999/xlink" x="0px" y="0px"
	 viewBox="0 0 247 246" style="enable-background:new 0 0 247 246;" xml:space="preserve">
<style type="text/css">
	.st0{fill:#FFFFFF;}
</style>
<path class="st0" d="M61.4,197.2c-21,0-41.6-7.4-52-18.2l5.8-11.4c10,9.8,27.8,17,46.2,17c26.2,0,37.6-11,37.6-24.8
	c0-38.4-86.2-14.8-86.2-66.6c0-20.6,16-38.4,51.6-38.4c15.8,0,32.2,4.6,43.4,12.4l-5,11.8c-12-7.8-26-11.6-38.4-11.6
	c-25.6,0-37,11.4-37,25.4c0,38.4,86.2,15.2,86.2,66.2C113.6,179.6,97.2,197.2,61.4,197.2z"/>
<path class="st0" d="M112.4,194h16.2l32-45c3.6,0.4,7.2,0.6,11.2,0.6h37.6V194h14.8V54h-52.4c-35.6,0-57.2,18-57.2,48
	c0,22,11.6,37.4,32,44L112.4,194z M172.2,137c-28,0-42.8-13-42.8-35c0-22.4,14.8-35.2,42.8-35.2h37.2V137H172.2z"/>
</svg>

<svg width="247" height="246" viewBox="0 0 247 246" fill="none" xmlns="http://www.w3.org/2000/svg">
<path d="M61.4 197.2C40.4 197.2 19.8 189.8 9.4 179L15.2 167.6C25.2 177.4 43 184.6 61.4 184.6C87.6 184.6 99 173.6 99 159.8C99 121.4 12.8 145 12.8 93.2C12.8 72.6 28.8 54.8 64.4 54.8C80.2 54.8 96.6 59.4 107.8 67.2L102.8 79C90.8 71.2 76.8 67.4 64.4 67.4C38.8 67.4 27.4 78.8 27.4 92.8C27.4 131.2 113.6 108 113.6 159C113.6 179.6 97.2 197.2 61.4 197.2Z" fill="#008EBB"/>
<path d="M112.4 194H128.6L160.6 149C164.2 149.4 167.8 149.6 171.8 149.6H209.4V194H224.2V54H171.8C136.2 54 114.6 72 114.6 102C114.6 124 126.2 139.4 146.6 146L112.4 194ZM172.2 137C144.2 137 129.4 124 129.4 102C129.4 79.6 144.2 66.8 172.2 66.8H209.4V137H172.2Z" fill="#008EBB"/>
</svg>
